X:1
T:Bryllupsvise
T:Bryllupsvise
T:Chr. Haslerud
C:Chr. Haslerud
%%score [ 1 2 3 4 ]
L:1/8
Q:1/4=80
M:6/8
K:D
V:1 treble-8 nm="T1"
V:2 treble-8 nm="T2"
V:3 bass nm="B1"
V:4 bass nm="B2"
V:1
"^Andante non troppo" A | B2 A (dc) B | A2 F B2 A | G2 E A2 G | (FG) F E z A | d2 c (BA) G | %6
w: En|Myr- te- krans _ er|skjön at se, naar|den staar frisk i|U- * skylds Sne med|Duft af Kjær- * lig-|
 F2 ^G A2 B | c2 c B2 B | A2 z z2 A | f2 f F/ ^G/ A/ B/ A | z2 z z2 A | g2 g e/ d/ c/ B/ A | %12
w: hed og vaad af|Glæ- dens kla- re|Graad, naar|Mo- ders Blik er Sol der- paa|og|Luf- ten let og höi- tids- blaa|
 z2 z z2 F | B2 ^A c2 B | d2 c B z =A | f2 e d2 c | d3 z2 |] %17
w: der-|o- ver gaar og|lif- lig spaar om|lang og kraf- tig|Dag.|
V:2
 F | G2 F A2 G | E2 F G2 F | D2 E E2 E | (DE) D E z E | A2 A (GF) D | D2 F F2 A | A2 A ^G2 G | %8
w: En|Myr- te- krans er|skjön at se, naar|den staar frisk i|U- * skylds Sne med|Duft af Kjær- * lig-|hed og vaad af|Glæ- dens kla- re|
 A2 z z2 A | d2 d D/ E/ F/ G/ F | z2 z z2 A | e2 e c/ B/ A/ G/ F | z2 z z2 F | F2 F F2 F | %14
w: Graad, naar|Mo- ders Blik er Sol der- paa|og|Luf- ten let og höi- tids- blaa|der-|o- ver gaar og|
 ^A2 A B z E | A2 B A2 A | A3 z2 |] %17
w: lif- lig spaar om|lang og kraf- tig|Dag.|
V:3
 D, | D,2 D, E,2 D, | E,2 D, D,2 D, | D,2 D, C,2 C, | D,2 D, C, z C, | D,2 D, D,2 D, | %6
w: En|Myr- te- krans er|skjön at se, naar|den staar frisk i|U- skylds Sne med|Duft af Kjær- lig-|
 D,2 D, C,2 F, | E,2 E, E,2 E, | C,2 z z2 z | z2 D, D,3/2 D,/ A,/ G,/ | F,2 B, A, z z | %11
w: hed og vaad af|Glæ- dens kla- re|Graad,|naar Mo- ders Blik er|Sol der- paa,|
 z2 E, E,3/2 E,/ F,/ G,/ | F,2 G, A, z D, | D,2 E, E,2 D, | F,2 E, D, z C, | D,2 G, F,2 G, | %16
w: Luf- ten er let og|höi- tids- blaa der-|o- ver gaar og|lif- lig spaar om|lang og kraf- tig|
 F,3 z2 |] %17
w: Dag.|
V:4
 D, | D,2 D, A,,2 B,, | C,2 D, G,,2 A,, | B,,2 B,, A,,2 A,, | D,2 D, A,, z A,, | %5
w: En|Myr- te- krans er|skjön at se, naar|den staar frisk i|U- skylds Sne med|
 F,,2 F,, (G,,A,,) B,, | A,,2 B,, C,2 D, | E,2 E, E,,2 E,, | A,,2 z z2 z | %9
w: Duft af Kjær- * lig-|hed og vaad af|Glæ- dens kla- re|Graad,|
 z2 D, D,3/2 C,/ F,/ E,/ | D,2 G, F, z z | z2 A,, A,,3/2 C,/ D,/ E,/ | D,2 E, F, z B,, | %13
w: naar Mo- ders Blik er|Sol der- paa,|Luf- ten er let og|höi- tids- blaa der-|
 B,,2 C, ^A,,2 B,, | F,,2 F,, G,, z G,, | F,,2 G,, A,,2 A,, | D,3 z2 |] %17
w: o- ver gaar og|lif- lig spaar om|lang og kraf- tig|Dag.|

